app/assets/img/search.svg

<svg width="40" height="40" viewBox="0 0 40 40" fill="none" xmlns="http://www.w3.org/2000/svg">
<rect width="40" height="40" rx="20" fill="#FF3E79"/>
<path fill-rule="evenodd" clip-rule="evenodd" d="M23.5006 22.0006H22.7106L22.4306 21.7306C23.6306 20.3306 24.2506 18.4206 23.9106 16.3906C23.4406 13.6106 21.1206 11.3906 18.3206 11.0506C14.0906 10.5306 10.5306 14.0906 11.0506 18.3206C11.3906 21.1206 13.6106 23.4406 16.3906 23.9106C18.4206 24.2506 20.3306 23.6306 21.7306 22.4306L22.0006 22.7106V23.5006L26.2606 27.7506C26.6706 28.1606 27.3306 28.1606 27.7406 27.7506L27.7506 27.7406C28.1606 27.3306 28.1606 26.6706 27.7506 26.2606L23.5006 22.0006ZM17.5006 22.0006C15.0106 22.0006 13.0006 19.9906 13.0006 17.5006C13.0006 15.0106 15.0106 13.0006 17.5006 13.0006C19.9906 13.0006 22.0006 15.0106 22.0006 17.5006C22.0006 19.9906 19.9906 22.0006 17.5006 22.0006Z" fill="white"/>
</svg>

<svg width="40" height="40" fill="none" xmlns="http://www.w3.org/2000/svg"><rect width="40" height="40" rx="20" fill="#FF3E79"/><path fill-rule="evenodd" clip-rule="evenodd" d="M23.5 22h-.79l-.28-.27a6.5 6.5 0 0 0 1.48-5.34c-.47-2.78-2.79-5-5.59-5.34a6.505 6.505 0 0 0-7.27 7.27c.34 2.8 2.56 5.12 5.34 5.59a6.5 6.5 0 0 0 5.34-1.48l.27.28v.79l4.26 4.25c.41.41 1.07.41 1.48 0l.01-.01c.41-.41.41-1.07 0-1.48L23.5 22Zm-6 0c-2.49 0-4.5-2.01-4.5-4.5s2.01-4.5 4.5-4.5 4.5 2.01 4.5 4.5-2.01 4.5-4.5 4.5Z" fill="#fff"/></svg>
